icons/razor.svg

<svg width="16" height="16" viewBox="0 0 16 16" fill="none" xmlns="http://www.w3.org/2000/svg">
<path fill-rule="evenodd" clip-rule="evenodd" d="M3.71429 4.11111C3.71429 3.49746 3.71429 3.63347 3.71429 3H12.2857C12.2857 3.55556 12.2857 3.49746 12.2857 4.11111C13.5 4.11111 14 4.66667 14 6.33333V9.66667C14 11.3333 13.5 11.8889 12.2857 11.8889C12.2857 12.5025 12.2857 12.4444 12.2857 13H3.71429C3.71429 12.4444 3.71429 12.5025 3.71429 11.8889C2.5 11.8889 2 11.3333 2 10.2222V5.77778C2 4.66667 2.5 4.11111 3.71429 4.11111ZM3.71429 9.11111C3.71429 9.41794 3.76331 9.66667 4 9.66667C4.23669 9.66667 4.5 9.41794 4.5 9.11111L4.57143 8.55556H5.07353L5.5 9.11111L6.49369 8.55556H6.78745C6.96395 9.20288 7.44019 9.66667 8 9.66667C8.55981 9.66667 9.03605 9.20288 9.21255 8.55556H9.35925L10.5 9.11111L10.7794 8.55556H11.4286V9.11111C11.4286 9.41794 11.7633 9.66667 12 9.66667C12.2367 9.66667 12.2857 9.41794 12.2857 9.11111V6.88889C12.2857 6.58206 12.2367 6.33333 12 6.33333C11.7633 6.33333 11.4286 6.58206 11.4286 6.88889V7.44444H10.9265L10.5 6.88889L9.21246 7.44409C9.03588 6.79695 8.55971 6.33333 8 6.33333C7.44019 6.33333 6.96395 6.79712 6.78745 7.44444H6.64076L5.5 6.88889L4.92647 7.44444H4.57143L4.5 6.88889C4.5 6.58206 4.23669 6.33333 4 6.33333C3.76331 6.33333 3.71429 6.58206 3.71429 6.88889V9.11111Z" fill="#EF5F32"/>
</svg>

<svg xmlns="http://www.w3.org/2000/svg" width="16" height="16" fill="none"><path fill="#EF5F32" fill-rule="evenodd" d="M3.714 4.111V3h8.572v1.111C13.5 4.111 14 4.667 14 6.333v3.334c0 1.666-.5 2.222-1.714 2.222V13H3.714v-1.111C2.5 11.889 2 11.333 2 10.222V5.778c0-1.111.5-1.667 1.714-1.667Zm0 5c0 .307.05.556.286.556.237 0 .5-.25.5-.556l.071-.555h.503l.426.555.994-.555h.293c.177.647.653 1.11 1.213 1.11s1.036-.463 1.213-1.11h.146l1.141.555.28-.555h.649v.555c0 .307.334.556.571.556.237 0 .286-.25.286-.556V6.89c0-.307-.05-.556-.286-.556-.237 0-.571.25-.571.556v.555h-.502L10.5 6.89l-1.288.555C9.036 6.797 8.56 6.334 8 6.334c-.56 0-1.036.463-1.213 1.11h-.146L5.5 6.89l-.574.555h-.355L4.5 6.89c0-.307-.263-.556-.5-.556s-.286.25-.286.556V9.11Z" clip-rule="evenodd"/></svg>
